!!!SOCIAL_FUNCTION:	cheyenne war song
!!!PDT:	1936
!!!OTL: No_5_He_Has_Gone.krn
!!!REG: Oklahoma and Montana
!!!LANG: Tone
!!!LING_GROUP: Algonquin
**kern
*staff1
=1-
*clefG2
*k[f#c#g#d#]
*M3/4
4f#/
4f#/
8f#/L
8f#/J
=2
*M2/4
4f#/
16f#/LL
16e/J
8e/J
=3
16g#/LL
16e/J
8e/J
8e/L
16B/L
16c#/JJ
=4
4B/
4B/
=5
4B/
8B/
16r
16f#/
=6
4e/
8e/L
8e/J
=7
*M3/4
8e/L
8e/J
8e/L
8e/J
(16e/LL
16c#/)
16c#/JJ
16r
=8
*M2/4
16g#/LL
16e/J
8e/J
8e/L
16B/L
16c#/JJ
=9
*M3/8
4B/
8r
=10
*M2/4
8.e/L
16f#/Jk
16e/LL
16c#/
16c#/
16B/JJ
=11
16c#/LK
[8.B/J
8B/L]
16G#/Jk
16r
=12
8.B/L
16B/Jk
4B/
=13
*M3/4
8.B/L
16B/Jk
8B/
4r
16r
16g#/
=14
4f#/
4f#/
8f#/L
8f#/J
=15
*M2/4
4f#/
(16f#/LL
16e/)
16e/JJ
16r
=16
16g#/LL
16e/J
8e/J
8e/L
16B/L
16c#/JJ
=17
4B/
[4B/
=18
4B/]
8B/
8r
=19
16f#/LK
8.e/J
8e/L
8e/J
=20
8e/L
8e/J
16e/LL
16c#/
16c#/JJ
16r
=21
16g#/LL
16e/J
8e/J
8e/L
16B/L
16c#/JJ
=22
*M3/8
4B/
8r
=23
*M2/4
8.e/L
16f#/Jk
16e/LL
16c#/
16c#/
16B/JJ
=24
16c#/LK
[8.B/J
4B/]
=25
8.B/L
16B/Jk
4B/
=26
(16B/LL
16A#/JJ)
16r
16B/
(16B/LL
16A#/JJ)
8r
==
*-
